public/deals.svg

<svg width="18" height="21" viewBox="0 0 18 21" fill="none" xmlns="http://www.w3.org/2000/svg">
<path d="M12.5244 4.31695C11.5244 3.46945 10.4944 2.59028 9.45195 1.55112L8.85775 0.961121L8.27442 1.55195C6.39775 3.43362 5.51108 6.32278 5.12608 8.05612C4.83139 7.59937 4.61272 7.09786 4.47858 6.57112L4.12608 5.21028L3.10108 6.17362C1.30525 7.85945 0.107749 9.53195 0.107749 12.2103C0.0909786 14.1422 0.720178 16.0243 1.89543 17.5577C3.07067 19.091 4.72456 20.1878 6.59442 20.6737C7.15781 20.8107 7.73284 20.8944 8.31192 20.9237C8.49297 20.9466 8.67525 20.9585 8.85775 20.9595C8.95355 20.9595 9.04695 20.9512 9.14025 20.9453C11.4103 20.877 13.5645 19.9268 15.1454 18.2962C16.7263 16.6656 17.6096 14.4831 17.6077 12.212C17.6077 8.63362 15.2519 6.63362 12.5244 4.31695ZM9.02445 19.2787C8.94105 19.2787 8.85775 19.287 8.76941 19.2862C8.01935 19.2632 7.30757 18.9496 6.78446 18.4116C6.26136 17.8736 5.96789 17.1532 5.96608 16.4028C5.96608 15.3462 6.53275 14.8195 7.81525 13.7278C8.13858 13.4528 8.49025 13.1537 8.86025 12.8112C9.18445 13.1053 9.49945 13.372 9.79025 13.6195C11.0785 14.7128 11.751 15.3337 11.751 16.4003C11.7496 17.1374 11.4665 17.8461 10.9596 18.3812C10.4526 18.9163 9.76035 19.2374 9.02445 19.2787ZM13.2077 17.8028L13.191 17.8145C13.3406 17.3588 13.4171 16.8824 13.4177 16.4028C13.4177 14.5153 12.1794 13.4637 10.8694 12.3512C10.4052 11.9578 9.92605 11.5512 9.44775 11.0728L8.85775 10.4837L8.26858 11.0728C7.72858 11.612 7.20025 12.062 6.73441 12.4587C5.42775 13.5703 4.29858 14.5312 4.29858 16.4028C4.30036 16.903 4.38483 17.3994 4.54858 17.872C3.68113 17.2059 2.97939 16.3483 2.49816 15.3662C2.01693 14.3841 1.76923 13.304 1.77442 12.2103C1.76071 10.748 2.3267 9.33972 3.34858 8.29362C3.5246 8.65072 3.73327 8.99078 3.97192 9.30945C4.14622 9.54465 4.38553 9.72371 4.66036 9.82455C4.93519 9.92539 5.23352 9.9436 5.51858 9.87695C5.80857 9.81239 6.07383 9.66567 6.28264 9.45435C6.49146 9.24302 6.63499 8.97602 6.69608 8.68528C7.04501 6.76999 7.79968 4.95151 8.90945 3.35195C9.78855 4.18528 10.6594 4.92278 11.4452 5.59028C14.0552 7.80695 15.9452 9.40862 15.9452 12.2153C15.9472 13.2942 15.7014 14.3591 15.2266 15.3279C14.7518 16.2967 14.0616 17.1434 13.2077 17.8028Z" fill="#3BB77E"/>
</svg>

<svg xmlns="http://www.w3.org/2000/svg" width="18" height="21" fill="none"><path fill="#3BB77E" d="M12.524 4.317c-1-.848-2.03-1.727-3.072-2.766l-.594-.59-.584.591c-1.876 1.882-2.763 4.77-3.148 6.504a5 5 0 0 1-.647-1.485l-.353-1.36-1.025.963C1.305 7.859.108 9.532.108 12.21a8.67 8.67 0 0 0 6.486 8.464q.848.205 1.718.25.271.035.546.035c.096 0 .189-.008.282-.014a8.73 8.73 0 0 0 8.468-8.733c0-3.578-2.356-5.578-5.084-7.895m-3.5 14.962c-.083 0-.166.008-.255.007a2.89 2.89 0 0 1-2.803-2.883c0-1.057.567-1.583 1.85-2.675.323-.275.674-.574 1.044-.917.324.294.64.561.93.809 1.289 1.093 1.961 1.714 1.961 2.78a2.89 2.89 0 0 1-2.727 2.879m4.184-1.476-.017.011c.15-.455.226-.932.227-1.411 0-1.888-1.239-2.94-2.549-4.052-.464-.393-.943-.8-1.421-1.278l-.59-.59-.59.59c-.54.539-1.068.989-1.534 1.386C5.428 13.57 4.3 14.53 4.3 16.403c.001.5.086.996.25 1.469a7.1 7.1 0 0 1-2.775-5.662A5.53 5.53 0 0 1 3.35 8.294q.264.537.623 1.015a1.5 1.5 0 0 0 1.547.568 1.55 1.55 0 0 0 1.177-1.192A13.65 13.65 0 0 1 8.91 3.352c.88.833 1.75 1.57 2.536 2.238 2.61 2.217 4.5 3.819 4.5 6.625a7.04 7.04 0 0 1-2.737 5.588"/></svg>
